X:1
T:Vergine se ti calsi
T:Giovanni Animuccia
T:Source : Secondo libro delle Laude spirituali a tre et a quattro voci---Roma---A.Gardano---1583. Editor : André Vierendeels (27/11/17). Notes : Original clefs : C1, C2, F4 Editorial accidentals above the staff Music compiled by Francisco Soto de Langa
T:Vergine se ti calsi
T:©
T:©
C:Giovanni Animuccia
Z:©
%%score [ 1 2 3 ]
L:1/8
Q:1/4=120
M:4/4
K:F
V:1 treble nm="Soprano" snm="S"
V:2 treble nm="Alto" snm="A"
V:3 bass nm="Bass" snm="B"
V:1
"^1)" z2 A3 A A2 | A2 B2 A4 | A4 d4 | d2 d2 B2 B2 | e4 d4 | z2 d2 c3 B | A4 G2 c2- | c2 c2 c2 c2 | %8
w: Ver- gi- ne|se ti cal-|si di|mor- tal pre- go|ma- i,|deh' pre- go'as-|col- ta'i miei|_ do- len- ti|
w: Fui del tuo|fi- glio spo-|sa ca-|ra spo- sa'et di-|let- ta,|ma per mio|fal- lo'hor piu|_ non mi ri-|
 B4 A2 d2 | B2 c2 A4 | G8 :| %11
w: gua- i, do-|len- ti gua-|i.|
w: cet- ta, non|mi ri- cet-|ta.|
V:2
"^2)""^1)" z2 F3 F F2 | F2 G2 F4 | F4 z2 B2 | B2 B2 G2 F2 | G3 A B4 | z2 B2 A2 G2- | %6
w: Ver- gi- ne|se ti cal-|si di|mor- tal pre- go|ma- * i,|deh, pre- go'as-|
w: Vil' fan- te|si mi stras-|se del|dol- ce'al- ber- go|fuo- * ra,|pian- gen- do'il|
"^#" G2 F2 G2 A2- | A2 A2 A2 A2 | G4 ^F2 F2 | G2 G4 F2 | G8 :| %11
w: * col- ta'i miei|_ do- len- ti|gua- i, do-|len- ti gua-|i.|
w: _ di- co'el' ri-|* cor- dar ma'ac-|co- ra, ma|_ co- *|ra.|
V:3
"^3)""^1)""^4)""^Servo:" z2 D,3 D, D,2 | D,2 G,,2 D,4 | D,4 z2 B,,2 | B,,2 B,,2 _E,2 D,2 | %4
w: Ver- gi- ne|se ti cal-|si di|mor- tal pre- go|
w: Hor son po-|ve- ra'è'in- fir-|ma, ab-|ban- do- na- ta'et|
 C,4 B,,4 | B,,4 C,2 C,2 | D,4 G,2 F,2- | F,2 F,2 F,2 F,2 | G,4 D,2 D,2 | _E,2 C,2 D,4 | %10
w: ma- i,|deh, pre- go'as-|col- ta'i miei|_ do- len- ti|gua- i, do-|len- ti gua-|
w: so- la,|nes- sum m'a-|iu- ta nes-|* sum mi con-|so- la, mi|con- * so-|
"^#" G,,8 :| %11
w: i.|
w: la.|

